X: 1
T:O'Dowd's
T:Dowd's Favourite
R:reel
Z:id:hn-reel-601
M:C|
K:Gdor
DGGA BABG|DF~F2 CFAF|DGGA BABd|(3cBA fc AGGF|
DGGA BABG|DF~F2 dFcF|DGGA BABd|(3cBA fc AGGA||
B2dB FBdB|B2dB cAFA|B2dB fBdB|cAFA BGGA|
(3Bcd Bd fBdc|(3Bcd Bd cAFA|GB (3ABc Bbag|fdcA BGG2||
gd~d2 gbag|fc~c2 fgaf|gd~d2 gbag|fdcA BGBd|
g2fa g2ag|f2eg fdcA|GB (3ABc Bbag|fdcA BGGF||
